Newaita-dark/apps/32/spotify-client.svg

<svg height="32pt" viewBox="0 0 32 32" width="32pt" xmlns="http://www.w3.org/2000/svg" xmlns:xlink="http://www.w3.org/1999/xlink"><linearGradient id="a"><stop offset="0" stop-opacity=".313725"/><stop offset=".222222" stop-opacity=".27451"/><stop offset="1" stop-opacity="0"/></linearGradient><radialGradient id="b" cx="450.90894" cy="189.57936" gradientTransform="matrix(.00000017 -.0781325 -.140638 -.0000001 44.523152 63.595332)" gradientUnits="userSpaceOnUse" r="21.166656" xlink:href="#a"/><radialGradient id="c" cx="450.90894" cy="189.57936" gradientTransform="matrix(-.00000017 .0781325 .140638 .0000001 -12.770121 -7.527481)" gradientUnits="userSpaceOnUse" r="21.166656" xlink:href="#a"/><radialGradient id="d" cx="450.90894" cy="189.57936" gradientTransform="matrix(-.00000017 -.0781325 .140638 -.0000001 -12.770121 63.595332)" gradientUnits="userSpaceOnUse" r="21.166656" xlink:href="#a"/><radialGradient id="e" cx="450.90894" cy="189.57936" gradientTransform="matrix(.00000017 .0781325 -.140638 .0000001 44.52315 -7.527482)" gradientUnits="userSpaceOnUse" r="21.166656" xlink:href="#a"/><linearGradient id="f" gradientTransform="matrix(.0133601 0 0 .062506 12.465386 13.438784)" gradientUnits="userSpaceOnUse" x1="255.32306" x2="255.32304" y1="233.5" y2="254.66666"><stop offset="0" stop-opacity=".27451"/><stop offset="1" stop-opacity="0"/></linearGradient><linearGradient id="g" gradientUnits="userSpaceOnUse" x1="254" x2="254" y1="-168.66667" y2="233.5"><stop offset="0" stop-color="#81c784"/><stop offset="1" stop-color="#66bb6a"/></linearGradient><linearGradient id="h" gradientTransform="matrix(.0162868 .0028718 -.0028718 .0162868 2.882214 -2.631594)" gradientUnits="userSpaceOnUse" x1="871.21808" x2="1102.7169" y1="185.77885" y2="1729.0249"><stop offset="0" stop-color="#e0e0e0"/><stop offset="1" stop-color="#eee"/></linearGradient><path d="m18.191406 28.035156h2.648438v-1.324218h-2.648438zm0 0" fill="url(#b)"/><path d="m13.5625 28.035156h-2.648438v1.320313h2.648438zm0 0" fill="url(#c)"/><path d="m13.5625 28.035156h-2.648438v-1.324218h2.648438zm0 0" fill="url(#d)"/><path d="m18.191406 28.035156h2.648438v1.320313h-2.648438zm0 0" fill="url(#e)"/><path d="m13.5625 27.703125h4.628906v1.652344h-4.628906zm0 0" fill="url(#f)"/><path d="m253.975747-168.691922c111.051895 0 201.105795 90.0539 201.105795 201.105795s-90.0539 201.105796-201.105795 201.105796c-111.051896 0-201.043302-90.053901-201.043302-201.105796s89.991406-201.105795 201.043302-201.105795zm0 0" fill="url(#g)" stroke="#333" stroke-linecap="round" stroke-width="3" transform="matrix(.062506 0 0 .062506 0 13.438783)"/><path d="m15.875 28.035156c-6.960938 0-12.566406-5.605468-12.566406-12.570312 0-.039063 0-.082032 0-.121094.066406 6.902344 5.644531 12.445312 12.566406 12.445312s12.503906-5.542968 12.570312-12.445312v.121094c0 6.964844-5.605468 12.570312-12.570312 12.570312zm0 0" fill-opacity=".196078"/><path d="m15.875 2.894531c-6.960938 0-12.566406 5.605469-12.566406 12.570313v.125c.066406-6.90625 5.644531-12.449219 12.566406-12.449219s12.503906 5.542969 12.570312 12.449219c0-.042969 0-.082032 0-.125 0-6.964844-5.605468-12.570313-12.570312-12.570313zm0 0" fill="#fff" fill-opacity=".392157"/><path d="m15.875 2.800781c-7.011719 0-12.660156 5.652344-12.660156 12.664063 0 7.011718 5.648437 12.664062 12.660156 12.664062 7.015625 0 12.664062-5.652344 12.664062-12.664062 0-7.011719-5.648437-12.664063-12.664062-12.664063zm0 .1875c6.914062 0 12.476562 5.5625 12.476562 12.476563 0 6.914062-5.5625 12.476562-12.476562 12.476562-6.910156 0-12.472656-5.5625-12.472656-12.476562 0-6.914063 5.5625-12.476563 12.472656-12.476563zm0 0" fill="#212121"/><path d="m16.980469 8.851562c-1.585938-.28125-3.15625-.328124-4.675781-.164062-4.847657.835938-4.117188 4.3125-.609376 3.46875 1.507813-.308594 3.097657-.34375 4.710938-.058594s3.097656.859375 4.410156 1.664063c3.003906 1.996093 4.882813-1.023438.609375-3.464844-1.371093-.671875-2.863281-1.167969-4.445312-1.445313zm-.917969 5.199219c-1.585938-.277343-3.15625-.324219-4.675781-.160156-3.429688.410156-3.046875 3-.480469 2.738281 1.511719-.25 3.09375-.253906 4.695312.03125 1.601563.28125 3.085938.824219 4.425782 1.574219 2.320312 1.125 3.566406-1.175781.480468-2.734375-1.371093-.675781-2.863281-1.167969-4.445312-1.449219zm-.804688 4.5625c-1.585937-.28125-3.152343-.324219-4.671874-.164062-2.042969.15625-1.574219 2.253906-.363282 2.050781 1.515625-.226562 3.09375-.214844 4.691406.066406 1.59375.28125 3.082032.8125 4.429688 1.539063 1.070312.605469 2.226562-1.203125.359375-2.046875-1.371094-.671875-2.859375-1.167969-4.445313-1.445313zm0 0" fill="url(#h)"/><path d="m14.035156 8.59375c-.582031 0-1.160156.03125-1.730468.09375-2.636719.453125-3.625 1.691406-3.410157 2.589844.179688-.8125 1.234375-1.71875 3.410157-2.09375 1.519531-.164063 3.089843-.117188 4.675781.164062 1.582031.277344 3.074219.773438 4.445312 1.445313 1.609375.917969 2.347657 1.921875 2.480469 2.707031.15625-.824219-.507812-2.074219-2.480469-3.203125-1.371093-.671875-2.863281-1.167969-4.445312-1.445313-.992188-.175781-1.976563-.257812-2.945313-.257812zm-.917968 5.203125c-.582032 0-1.160157.03125-1.730469.09375-1.945313.234375-2.664063 1.167969-2.453125 1.882813.167968-.597657.9375-1.203126 2.453125-1.386719 1.519531-.164063 3.089843-.117188 4.675781.160156 1.582031.28125 3.074219.773437 4.445312 1.449219 1.132813.570312 1.679688 1.242187 1.808594 1.808594.160156-.628907-.320312-1.554688-1.808594-2.304688-1.371093-.675781-2.863281-1.167969-4.445312-1.449219-.992188-.171875-1.976562-.257812-2.945312-.253906zm-.804688 4.558594c-.582031.003906-1.160156.035156-1.726562.09375-1.171876.089843-1.515626.816406-1.371094 1.382812.113281-.425781.527344-.820312 1.371094-.886719 1.519531-.160156 3.085937-.117187 4.671874.164063 1.585938.277344 3.074219.773437 4.445313 1.445313.578125.261718.867187.613281.957031.960937.125-.46875-.089844-1.066406-.957031-1.457031-1.371094-.671875-2.859375-1.167969-4.445313-1.445313-.992187-.175781-1.976562-.257812-2.945312-.257812zm0 0" fill="#fff"/><path d="m271.661558-73.388523c-25.372577-4.499571-50.495178-5.249499-74.805357-2.62475-77.555094 13.373723-65.86871 68.993412-9.749069 55.494701 24.122697-4.937029 49.557768-5.499475 75.367803-.937411 25.810035 4.562065 49.557767 13.748688 70.555762 26.622458 48.057911 31.934451 78.11754-16.373436 9.749069-55.432206-21.935405-10.748974-45.808125-18.685716-71.118208-23.122792zm-14.686098 83.179557c-25.372577-4.437077-50.495178-5.187005-74.805356-2.562256-54.869761 6.561874-48.745345 47.995417-7.686766 43.808317 24.18519-3.999618 49.495273-4.062112 75.117826.499952 25.622553 4.49957 49.370286 13.186241 70.805739 25.185095 37.121455 17.998281 57.057051-18.810704 7.686766-43.745823-21.935406-10.811467-45.808126-18.685715-71.118209-23.185285zm-12.873771 72.993029c-25.372577-4.49957-50.432683-5.187005-74.742862-2.624749-32.684379 2.499761-25.185095 36.059056-5.811945 32.809367 24.247685-3.624654 49.495273-3.437172 75.055333 1.062398 25.497565 4.49957 49.307791 12.998759 70.868232 24.622649 17.123365 9.686575 35.621598-19.248162 5.749451-32.746873-21.935405-10.748974-45.745632-18.685716-71.118209-23.122792zm0 0" fill="none" stroke="#212121" stroke-linecap="round" stroke-width="3" transform="matrix(.062506 0 0 .062506 0 13.438783)"/><path d="m8.957031 11.332031c-.425781 1.074219.675781 2.070313 2.738281 1.574219 1.507813-.308594 3.097657-.339844 4.710938-.058594 1.613281.285156 3.097656.863282 4.410156 1.667969 1.96875 1.304687 3.453125.457031 3.042969-.964844-.300781.824219-1.527344 1.09375-3.042969.089844-1.3125-.804687-2.796875-1.382813-4.410156-1.664063-1.613281-.285156-3.203125-.253906-4.710938.054688-1.46875.355469-2.449218-.050781-2.738281-.699219zm.054688 4.5c-.414063.816407.339843 1.703125 1.894531 1.546875 1.511719-.25 3.09375-.25 4.695312.03125 1.601563.28125 3.089844.824219 4.425782 1.574219 1.570312.761719 2.648437-.046875 2.222656-1.132813-.273438.558594-1.128906.789063-2.222656.261719-1.335938-.753906-2.824219-1.296875-4.425782-1.578125-1.601562-.28125-3.183593-.28125-4.695312-.03125-.984375.101563-1.644531-.21875-1.894531-.671875zm.273437 4.066407c-.320312.644531.152344 1.484374.9375 1.351562 1.515625-.226562 3.09375-.214844 4.691406.066406 1.59375.28125 3.082032.8125 4.429688 1.542969.796875.449219 1.648438-.445313 1.246094-1.28125-.214844.4375-.742188.691406-1.246094.40625-1.347656-.730469-2.835938-1.257813-4.429688-1.539063-1.597656-.28125-3.175781-.292968-4.691406-.070312-.433594.074219-.777344-.152344-.9375-.476562zm0 0" fill-opacity=".235294"/></svg>

<?xml version="1.0" encoding="UTF-8"?>
<svg xmlns="http://www.w3.org/2000/svg" xmlns:xlink="http://www.w3.org/1999/xlink" width="32pt" height="32pt" viewBox="0 0 32 32" version="1.1">
<defs>
<radialGradient id="radial0" gradientUnits="userSpaceOnUse" cx="450.90894" cy="189.57936" fx="450.90894" fy="189.57936" r="21.166656" gradientTransform="matrix(0.00000017417,-0.0781325,-0.140638,-0.000000101539,44.523152,63.595332)">
<stop offset="0" style="stop-color:rgb(0%,0%,0%);stop-opacity:0.313725;"/>
<stop offset="0.222222" style="stop-color:rgb(0%,0%,0%);stop-opacity:0.27451;"/>
<stop offset="1" style="stop-color:rgb(0%,0%,0%);stop-opacity:0;"/>
</radialGradient>
<radialGradient id="radial1" gradientUnits="userSpaceOnUse" cx="450.90894" cy="189.57936" fx="450.90894" fy="189.57936" r="21.166656" gradientTransform="matrix(-0.00000017417,0.0781325,0.140638,0.000000101539,-12.770121,-7.527481)">
<stop offset="0" style="stop-color:rgb(0%,0%,0%);stop-opacity:0.313725;"/>
<stop offset="0.222222" style="stop-color:rgb(0%,0%,0%);stop-opacity:0.27451;"/>
<stop offset="1" style="stop-color:rgb(0%,0%,0%);stop-opacity:0;"/>
</radialGradient>
<radialGradient id="radial2" gradientUnits="userSpaceOnUse" cx="450.90894" cy="189.57936" fx="450.90894" fy="189.57936" r="21.166656" gradientTransform="matrix(-0.00000017417,-0.0781325,0.140638,-0.000000101539,-12.770121,63.595332)">
<stop offset="0" style="stop-color:rgb(0%,0%,0%);stop-opacity:0.313725;"/>
<stop offset="0.222222" style="stop-color:rgb(0%,0%,0%);stop-opacity:0.27451;"/>
<stop offset="1" style="stop-color:rgb(0%,0%,0%);stop-opacity:0;"/>
</radialGradient>
<radialGradient id="radial3" gradientUnits="userSpaceOnUse" cx="450.90894" cy="189.57936" fx="450.90894" fy="189.57936" r="21.166656" gradientTransform="matrix(0.00000017417,0.0781325,-0.140638,0.000000101539,44.52315,-7.527482)">
<stop offset="0" style="stop-color:rgb(0%,0%,0%);stop-opacity:0.313725;"/>
<stop offset="0.222222" style="stop-color:rgb(0%,0%,0%);stop-opacity:0.27451;"/>
<stop offset="1" style="stop-color:rgb(0%,0%,0%);stop-opacity:0;"/>
</radialGradient>
<linearGradient id="linear0" gradientUnits="userSpaceOnUse" x1="255.32306" y1="233.5" x2="255.32304" y2="254.66666" gradientTransform="matrix(0.0133601,0,0,0.062506,12.465386,13.438784)">
<stop offset="0" style="stop-color:rgb(0%,0%,0%);stop-opacity:0.27451;"/>
<stop offset="1" style="stop-color:rgb(0%,0%,0%);stop-opacity:0;"/>
</linearGradient>
<linearGradient id="linear1" gradientUnits="userSpaceOnUse" x1="254" y1="-168.66667" x2="254" y2="233.5" >
<stop offset="0" style="stop-color:rgb(50.588235%,78.039216%,51.764706%);stop-opacity:1;"/>
<stop offset="1" style="stop-color:rgb(40%,73.333333%,41.568627%);stop-opacity:1;"/>
</linearGradient>
<linearGradient id="linear2" gradientUnits="userSpaceOnUse" x1="871.21808" y1="185.77885" x2="1102.7169" y2="1729.0249" gradientTransform="matrix(0.0162868,0.0028718,-0.0028718,0.0162868,2.882214,-2.631594)">
<stop offset="0" style="stop-color:rgb(87.843137%,87.843137%,87.843137%);stop-opacity:1;"/>
<stop offset="1" style="stop-color:rgb(93.333333%,93.333333%,93.333333%);stop-opacity:1;"/>
</linearGradient>
</defs>
<g id="surface1">
<path style=" stroke:none;fill-rule:nonzero;fill:url(#radial0);" d="M 18.191406 28.035156 L 20.839844 28.035156 L 20.839844 26.710938 L 18.191406 26.710938 Z M 18.191406 28.035156 "/>
<path style=" stroke:none;fill-rule:nonzero;fill:url(#radial1);" d="M 13.5625 28.035156 L 10.914062 28.035156 L 10.914062 29.355469 L 13.5625 29.355469 Z M 13.5625 28.035156 "/>
<path style=" stroke:none;fill-rule:nonzero;fill:url(#radial2);" d="M 13.5625 28.035156 L 10.914062 28.035156 L 10.914062 26.710938 L 13.5625 26.710938 Z M 13.5625 28.035156 "/>
<path style=" stroke:none;fill-rule:nonzero;fill:url(#radial3);" d="M 18.191406 28.035156 L 20.839844 28.035156 L 20.839844 29.355469 L 18.191406 29.355469 Z M 18.191406 28.035156 "/>
<path style=" stroke:none;fill-rule:nonzero;fill:url(#linear0);" d="M 13.5625 27.703125 L 18.191406 27.703125 L 18.191406 29.355469 L 13.5625 29.355469 Z M 13.5625 27.703125 "/>
<path style="fill-rule:nonzero;fill:url(#linear1);stroke-width:3;stroke-linecap:round;stroke-linejoin:miter;stroke:rgb(20%,20%,20%);stroke-opacity:1;stroke-miterlimit:4;" d="M 253.975747 -168.691922 C 365.027642 -168.691922 455.081542 -78.638022 455.081542 32.413873 C 455.081542 143.465768 365.027642 233.519669 253.975747 233.519669 C 142.923851 233.519669 52.932445 143.465768 52.932445 32.413873 C 52.932445 -78.638022 142.923851 -168.691922 253.975747 -168.691922 Z M 253.975747 -168.691922 " transform="matrix(0.062506,0,0,0.062506,0,13.438783)"/>
<path style=" stroke:none;fill-rule:nonzero;fill:rgb(0%,0%,0%);fill-opacity:0.196078;" d="M 15.875 28.035156 C 8.914062 28.035156 3.308594 22.429688 3.308594 15.464844 C 3.308594 15.425781 3.308594 15.382812 3.308594 15.34375 C 3.375 22.246094 8.953125 27.789062 15.875 27.789062 C 22.796875 27.789062 28.378906 22.246094 28.445312 15.34375 C 28.445312 15.382812 28.445312 15.425781 28.445312 15.464844 C 28.445312 22.429688 22.839844 28.035156 15.875 28.035156 Z M 15.875 28.035156 "/>
<path style=" stroke:none;fill-rule:nonzero;fill:rgb(100%,100%,100%);fill-opacity:0.392157;" d="M 15.875 2.894531 C 8.914062 2.894531 3.308594 8.5 3.308594 15.464844 C 3.308594 15.507812 3.308594 15.546875 3.308594 15.589844 C 3.375 8.683594 8.953125 3.140625 15.875 3.140625 C 22.796875 3.140625 28.378906 8.683594 28.445312 15.589844 C 28.445312 15.546875 28.445312 15.507812 28.445312 15.464844 C 28.445312 8.5 22.839844 2.894531 15.875 2.894531 Z M 15.875 2.894531 "/>
<path style=" stroke:none;fill-rule:nonzero;fill:rgb(12.941176%,12.941176%,12.941176%);fill-opacity:1;" d="M 15.875 2.800781 C 8.863281 2.800781 3.214844 8.453125 3.214844 15.464844 C 3.214844 22.476562 8.863281 28.128906 15.875 28.128906 C 22.890625 28.128906 28.539062 22.476562 28.539062 15.464844 C 28.539062 8.453125 22.890625 2.800781 15.875 2.800781 Z M 15.875 2.988281 C 22.789062 2.988281 28.351562 8.550781 28.351562 15.464844 C 28.351562 22.378906 22.789062 27.941406 15.875 27.941406 C 8.964844 27.941406 3.402344 22.378906 3.402344 15.464844 C 3.402344 8.550781 8.964844 2.988281 15.875 2.988281 Z M 15.875 2.988281 "/>
<path style=" stroke:none;fill-rule:nonzero;fill:url(#linear2);" d="M 16.980469 8.851562 C 15.394531 8.570312 13.824219 8.523438 12.304688 8.6875 C 7.457031 9.523438 8.1875 13 11.695312 12.15625 C 13.203125 11.847656 14.792969 11.8125 16.40625 12.097656 C 18.019531 12.382812 19.503906 12.957031 20.816406 13.761719 C 23.820312 15.757812 25.699219 12.738281 21.425781 10.296875 C 20.054688 9.625 18.5625 9.128906 16.980469 8.851562 Z M 16.0625 14.050781 C 14.476562 13.773438 12.90625 13.726562 11.386719 13.890625 C 7.957031 14.300781 8.339844 16.890625 10.90625 16.628906 C 12.417969 16.378906 14 16.375 15.601562 16.660156 C 17.203125 16.941406 18.6875 17.484375 20.027344 18.234375 C 22.347656 19.359375 23.59375 17.058594 20.507812 15.5 C 19.136719 14.824219 17.644531 14.332031 16.0625 14.050781 Z M 15.257812 18.613281 C 13.671875 18.332031 12.105469 18.289062 10.585938 18.449219 C 8.542969 18.605469 9.011719 20.703125 10.222656 20.5 C 11.738281 20.273438 13.316406 20.285156 14.914062 20.566406 C 16.507812 20.847656 17.996094 21.378906 19.34375 22.105469 C 20.414062 22.710938 21.570312 20.902344 19.703125 20.058594 C 18.332031 19.386719 16.84375 18.890625 15.257812 18.613281 Z M 15.257812 18.613281 "/>
<path style=" stroke:none;fill-rule:nonzero;fill:rgb(100%,100%,100%);fill-opacity:1;" d="M 14.035156 8.59375 C 13.453125 8.59375 12.875 8.625 12.304688 8.6875 C 9.667969 9.140625 8.679688 10.378906 8.894531 11.277344 C 9.074219 10.464844 10.128906 9.558594 12.304688 9.183594 C 13.824219 9.019531 15.394531 9.066406 16.980469 9.347656 C 18.5625 9.625 20.054688 10.121094 21.425781 10.792969 C 23.035156 11.710938 23.773438 12.714844 23.90625 13.5 C 24.0625 12.675781 23.398438 11.425781 21.425781 10.296875 C 20.054688 9.625 18.5625 9.128906 16.980469 8.851562 C 15.988281 8.675781 15.003906 8.59375 14.035156 8.59375 Z M 13.117188 13.796875 C 12.535156 13.796875 11.957031 13.828125 11.386719 13.890625 C 9.441406 14.125 8.722656 15.058594 8.933594 15.773438 C 9.101562 15.175781 9.871094 14.570312 11.386719 14.386719 C 12.90625 14.222656 14.476562 14.269531 16.0625 14.546875 C 17.644531 14.828125 19.136719 15.320312 20.507812 15.996094 C 21.640625 16.566406 22.1875 17.238281 22.316406 17.804688 C 22.476562 17.175781 21.996094 16.25 20.507812 15.5 C 19.136719 14.824219 17.644531 14.332031 16.0625 14.050781 C 15.070312 13.878906 14.085938 13.792969 13.117188 13.796875 Z M 12.3125 18.355469 C 11.730469 18.359375 11.152344 18.390625 10.585938 18.449219 C 9.414062 18.539062 9.070312 19.265625 9.214844 19.832031 C 9.328125 19.40625 9.742188 19.011719 10.585938 18.945312 C 12.105469 18.785156 13.671875 18.828125 15.257812 19.109375 C 16.84375 19.386719 18.332031 19.882812 19.703125 20.554688 C 20.28125 20.816406 20.570312 21.167969 20.660156 21.515625 C 20.785156 21.046875 20.570312 20.449219 19.703125 20.058594 C 18.332031 19.386719 16.84375 18.890625 15.257812 18.613281 C 14.265625 18.4375 13.28125 18.355469 12.3125 18.355469 Z M 12.3125 18.355469 "/>
<path style="fill:none;stroke-width:3;stroke-linecap:round;stroke-linejoin:miter;stroke:rgb(12.941176%,12.941176%,12.941176%);stroke-opacity:1;stroke-miterlimit:4;" d="M 271.661558 -73.388523 C 246.288981 -77.888094 221.16638 -78.638022 196.856201 -76.013273 C 119.301107 -62.63955 130.987491 -7.019861 187.107132 -20.518572 C 211.229829 -25.455601 236.6649 -26.018047 262.474935 -21.455983 C 288.28497 -16.893918 312.032702 -7.707295 333.030697 5.166475 C 381.088608 37.100926 411.148237 -11.206961 342.779766 -50.265731 C 320.844361 -61.014705 296.971641 -68.951447 271.661558 -73.388523 Z M 256.97546 9.791034 C 231.602883 5.353957 206.480282 4.604029 182.170104 7.228778 C 127.300343 13.790652 133.424759 55.224195 174.483338 51.037095 C 198.668528 47.037477 223.978611 46.974983 249.601164 51.537047 C 275.223717 56.036617 298.97145 64.723288 320.406903 76.722142 C 357.528358 94.720423 377.463954 57.911438 328.093669 32.976319 C 306.158263 22.164852 282.285543 14.290604 256.97546 9.791034 Z M 244.101689 82.784063 C 218.729112 78.284493 193.669006 77.597058 169.358827 80.159314 C 136.674448 82.659075 144.173732 116.21837 163.546882 112.968681 C 187.794567 109.344027 213.042155 109.531509 238.602215 114.031079 C 264.09978 118.530649 287.910006 127.029838 309.470447 138.653728 C 326.593812 148.340303 345.092045 119.405566 315.219898 105.906855 C 293.284493 95.157881 269.474266 87.221139 244.101689 82.784063 Z M 244.101689 82.784063 " transform="matrix(0.062506,0,0,0.062506,0,13.438783)"/>
<path style=" stroke:none;fill-rule:nonzero;fill:rgb(0%,0%,0%);fill-opacity:0.235294;" d="M 8.957031 11.332031 C 8.53125 12.40625 9.632812 13.402344 11.695312 12.90625 C 13.203125 12.597656 14.792969 12.566406 16.40625 12.847656 C 18.019531 13.132812 19.503906 13.710938 20.816406 14.515625 C 22.785156 15.820312 24.269531 14.972656 23.859375 13.550781 C 23.558594 14.375 22.332031 14.644531 20.816406 13.640625 C 19.503906 12.835938 18.019531 12.257812 16.40625 11.976562 C 14.792969 11.691406 13.203125 11.722656 11.695312 12.03125 C 10.226562 12.386719 9.246094 11.980469 8.957031 11.332031 Z M 9.011719 15.832031 C 8.597656 16.648438 9.351562 17.535156 10.90625 17.378906 C 12.417969 17.128906 14 17.128906 15.601562 17.410156 C 17.203125 17.691406 18.691406 18.234375 20.027344 18.984375 C 21.597656 19.746094 22.675781 18.9375 22.25 17.851562 C 21.976562 18.410156 21.121094 18.640625 20.027344 18.113281 C 18.691406 17.359375 17.203125 16.816406 15.601562 16.535156 C 14 16.253906 12.417969 16.253906 10.90625 16.503906 C 9.921875 16.605469 9.261719 16.285156 9.011719 15.832031 Z M 9.285156 19.898438 C 8.964844 20.542969 9.4375 21.382812 10.222656 21.25 C 11.738281 21.023438 13.316406 21.035156 14.914062 21.316406 C 16.507812 21.597656 17.996094 22.128906 19.34375 22.859375 C 20.140625 23.308594 20.992188 22.414062 20.589844 21.578125 C 20.375 22.015625 19.847656 22.269531 19.34375 21.984375 C 17.996094 21.253906 16.507812 20.726562 14.914062 20.445312 C 13.316406 20.164062 11.738281 20.152344 10.222656 20.375 C 9.789062 20.449219 9.445312 20.222656 9.285156 19.898438 Z M 9.285156 19.898438 "/>
</g>
</svg>
